X:1
T:Title
%%score 1 2 3
L:1/8
M:4/2
K:F
V:1 treble-8 nm="Part_1"
V:2 treble-8 nm="Part_2"
V:3 bass nm="Part_3"
V:1
 G16 | G8 G8 | G16 | F16 | F8 F8 | G8 G8 | z8 F8 | F8 F4 F4 | G4 A4 B8 | B8 A4 B4- | B4 A8 G4 | %11
 A8 z8 | z16 | z16 | z16 | z16 | z16 | z16 | z16 | z16 | d16 | d16 | d8 c8 | B8 A8 | G8 c8- | %25
 c4 B4 A8 | G8 z8 | B8 c8 | d8 c4 B4- | B4 A8 G4 | A16 | z16 | z16 | z16 | z16 | z16 | z16 | z16 | %38
 z16 | B16 | A8 G8 | A12 G4 | G8 F8 | G4 A4 B8 | A4 A8 G4 | A16 | z16 | z16 | z16 | z16 | z16 | %51
 z16 | A16 | d8 d8- | d4 c4 B8 | A16 | A8 G8 | A8 c8 | B4 A8 G4 | A16 | z8 d8- | d4 c4 B8 | A8 G8 | %63
 z8 B8 | c8 d8 | c8 B4 c4- | c4 B8 A4 | B16 | B8 B8 | B8 B8 | G4 A4 B4 A4- | A4 G8 ^F4 | G16 | %73
 z16 | z16 | z16 | A16 | d16 | d8 c8 | B8 B4 c4- | c4 B8 A4 | B16 | z8 d8- | d8 d8 | c8 B8 | %85
 c8 B4 A4 | B4 c6 B2 A4- | A4 G8 F4 | G16 | z8 D8 | D12 E4 | F8 G8- | G8 F8 | G4 A4 B8 | A4 A8 G4 | %95
 A16 | z8 d8 | d16 | c8 B4 c4- | c4 B4 A4 B4- | B4 A4 G4 A4- | A4 G4 F4 G4 | z4 F4 G4 A4 | %103
 B4 G4 A4 B4 | c4 A4 B4 c4 | d6 c2 B4 A4 | B4 A4 G4 z4 | F4 G4 A4 B4- | B4 A8 G4 | A8 A8 | z8 d8- | %111
 d8 d8- | d8 c8 | B8 B8 | A16 | d12 c4 | B8 A4 B4- | B4 A4 G4 A4- | A4 G8 F4 | G16 |] %120
V:2
 z16 | z16 | z16 | z16 | z16 | z16 | z16 | z16 | z16 | z16 | z16 | z16 | B16 | B8 A8 | G8 G8 | %15
 z8 c8 | B16 | A8 G4 A4- | A4 G8 ^F4 | G16- | G16 | z16 | z16 | z16 | z16 | z16 | z16 | z16 | z16 | %29
 z16 | z16 | z8 d8 | d8 z8 | d8 d4 d4- | d4 A4 B8 | A8 G4 G4 | c4 c4 B4 A4- | A4 G8 ^F4 | G16- | %39
 G16 | z16 | z16 | z16 | z16 | z16 | z16 | B16 | A8 G8 | A12 G4 | G8 F8 | B8 A4 G4- | G4 F4 E8 | %52
 D16 | A16 | G8 G8 | F16 | F8 D8 | E12 F4 | G4 E8 D4 | E16 | F8 A8- | A4 G4 F8- | F4 E4 D4 G4- | %63
 G4 ^F4 G8 | E8 D4 F4 | E4 G4 F4 G4- | G4 F8 E4 | F16 | z16 | z16 | z16 | z16 | z16 | A4 A4 B8 | %74
 A4 G4 F4 G4- | G4 F4 E8 | D8 z8 | A8 G8 | A8 G8 | F12 G4- | G4 F8 E4 | F16 | (F8 A8) | B8 A8 | %84
 G4 G8 F4 | G8 F8 | G4 A6 G2 F4- | F2 E2 D8 C4 | D16 | G16 | F12 E2 D2 | C8 D8- | D4 E4 F6 D2 | %93
 E4 E4 F8 | F4 E8 D4 | E16 | F8 A8- | A8 G8 | A8 F4 G4 | A4 F4 E4 F4 | G4 E4 D4 E4 | F4 D4 C4 D4 | %102
 E4 D8 E4 | F4 C4 E4 F4 | G4 D4 F4 G4 | A4 B4 G4 D4 | F6 E2 D4 E4 | C4 D4 F4 D4 | C4 E8 D4 | E16 | %110
 F8 A8- | A8 A8 | G4 G8 F4 | G16 | F12 E4 | F4 G4 A8 | F8 E4 F4 | F6 E2 D4 E4 | E4 D8 C4 | D16 |] %120
V:3
 G,,12 A,,4 | B,,8 C,8 | B,,8 C,8 | D,8 B,,4 D,4- | D,2 C,2 B,,4 A,,8 | G,,16 | D,16 | B,,8 D,8 | %8
 C,8 B,,4 C,4 | D,8 C,4 D,4- | D,2 C,2 B,,2 A,,2 B,,8 | A,,16 | z16 | z16 | B,,16 | B,,8 A,,8 | %16
 G,,8 G,,8 | C,8 B,,4 C,4 | G,,4 B,,4 A,,8 | G,,16 | z16 | D,16 | G,,8 z8 | D,8 C,8 | B,,8 A,,8 | %25
 G,,8 C,8- | C,4 B,,4 A,,8 | G,,8 z8 | B,,8 C,4 D,4- | D,4 A,,4 B,,8 | A,,8 A,,8 | D,8 D,8 | %32
 z8 G,,8 | G,,8 z8 | D,8 D,4 D,4- | D,4 A,,4 B,,4 B,,4 | A,,4 A,,4 G,,4 C,4 | C,4 B,,4 A,,8 | %38
 G,,16 | z8 G,,8 | D,8 E,4 G,4 | F,4 G,8 F,4 | G,8 D,8 | C,8 B,,4 D,4- | D,2 C,2 A,,4 B,,8 | %45
 A,,16 | G,,16 | A,,8 B,,8 | A,,12 B,,4 | C,8 D,8 | G,,8 D,4 E,4- | E,4 D,4 D,4 C,4 | D,16- | %53
 D,16 | G,,16 | D,8 D,8- | D,4 C,4 B,,8 | A,,8 A,,4 A,,4 | G,,4 A,,4 B,,4 B,,4 | A,,16 | D,16 | %61
 z8 D,8- | D,4 C,4 B,,8 | A,,8 G,,8 | z8 B,,8 | C,4 C,4 D,4 C,4- | C,2 D,2 B,,4 C,8 | B,,16 | %68
 G,,8 G,,8- | G,,4 A,,4 B,,8 | C,8 B,,4 C,4 | B,,4 G,,4 A,,8 | G,,8 z8 | D,4 D,4 G,8 | %74
 F,4 E,4 D,4 E,4- | E,4 D,4 D,4 ^C,4 | D,16 | D,8 G,,8 | D,8 E,4 C,4 | D,4 B,,8 E,4- | %80
 E,2 D,2 C,2 B,,2 C,8 | B,,16 | D,16 | G,,8 D,8 | E,4 C,4 D,8 | C,8 D,6 C,2 | B,,4 A,,8 D,4- | %87
 D,2 C,2 B,,4 A,,8 | G,,16- | G,,16 | B,,8 B,,8 | A,,8 G,,8 | B,,4 C,4 D,8 | C,4 C,4 B,,4 D,4- | %94
 D,2 C,2 A,,4 B,,8 | A,,16 | D,8 D,8- | D,4 C,4 B,,8 | A,,8 D,4 C,4 | A,,4 B,,4 C,4 B,,4 | %100
 G,,4 A,,4 B,,4 G,,4 | F,,4 G,,4 A,,4 G,,4 | C,4 z4 B,,4 C,4 | D,4 E,4 C,4 D,4 | E,4 F,4 D,4 E,4 | %105
 F,4 G,8 F,4 | D,6 C,2 B,,4 A,,4- | A,,4 G,,4 F,,4 G,,4 | A,,4 C,4 B,,8 | A,,16 | D,16 | D,12 C,4 | %112
 (B,,8 A,,8) | G,,16 | D,12 C,4 | (B,,8 A,,8) | D,8 C,4 B,,4 | D,6 C,2 B,,4 A,,4 | B,,4 G,,4 A,,8 | %119
 G,,16 |] %120

